flaticon/travel/sand-castle.svg

<svg xmlns="http://www.w3.org/2000/svg" width="32" height="32" viewBox="0 0 24 24">
    <path d="M 24 5.601562 L 21.601562 5.601562 L 21.601562 7.199219 L 20.800781 7.199219 L 20.800781 5.601562 L 20 5.601562 L 20 3.863281 L 23.34375 2.40625 L 23.601562 2.28125 L 23.589844 1.742188 L 19.761719 0.0351562 C 19.761719 0.0351562 19.761719 0.0351562 19.757812 0.0351562 C 19.734375 0.0234375 19.707031 0.0234375 19.683594 0.015625 C 19.65625 0.0117188 19.628906 0 19.601562 0 C 19.582031 0 19.570312 0.0078125 19.554688 0.0078125 C 19.519531 0.015625 19.484375 0.015625 19.449219 0.03125 C 19.425781 0.0390625 19.40625 0.0585938 19.386719 0.0703125 C 19.363281 0.0859375 19.339844 0.09375 19.324219 0.113281 C 19.296875 0.136719 19.28125 0.167969 19.261719 0.199219 C 19.253906 0.210938 19.242188 0.222656 19.234375 0.238281 C 19.222656 0.265625 19.222656 0.292969 19.214844 0.320312 C 19.210938 0.34375 19.199219 0.371094 19.199219 0.394531 C 19.199219 0.398438 19.199219 0.398438 19.199219 0.398438 L 19.199219 5.601562 L 18.398438 5.601562 L 18.398438 7.199219 L 17.601562 7.199219 L 17.601562 5.601562 L 15.199219 5.601562 L 15.199219 10 L 16 10 L 16 12.398438 L 14.800781 12.398438 L 14.800781 8.800781 L 12.398438 8.800781 L 12.398438 10.398438 L 11.601562 10.398438 L 11.601562 8.800781 L 9.199219 8.800781 L 9.199219 12.398438 L 8 12.398438 L 8 10 L 8.800781 10 L 8.800781 5.601562 L 6.398438 5.601562 L 6.398438 7.199219 L 5.601562 7.199219 L 5.601562 5.601562 L 4.800781 5.601562 L 4.800781 3.863281 L 8.15625 2.40625 L 8.414062 2.28125 L 8.398438 1.738281 L 4.5625 0.0351562 C 4.5625 0.0351562 4.558594 0.0351562 4.558594 0.0351562 C 4.535156 0.0234375 4.511719 0.0234375 4.484375 0.015625 C 4.457031 0.0117188 4.429688 0 4.402344 0 C 4.402344 0 4.402344 0 4.398438 0 C 4.382812 0 4.371094 0.0078125 4.355469 0.0078125 C 4.320312 0.0117188 4.285156 0.015625 4.25 0.03125 C 4.226562 0.0390625 4.207031 0.0585938 4.183594 0.0703125 C 4.164062 0.0859375 4.140625 0.09375 4.121094 0.113281 C 4.097656 0.136719 4.082031 0.164062 4.0625 0.195312 C 4.054688 0.210938 4.042969 0.222656 4.035156 0.238281 C 4.035156 0.238281 4.035156 0.238281 4.03125 0.242188 C 4.023438 0.265625 4.023438 0.292969 4.015625 0.316406 C 4.011719 0.34375 4 0.371094 4 0.394531 C 4 0.398438 4 0.398438 4 0.398438 L 4 3.601562 C 4 3.605469 4 3.605469 4 3.605469 L 4 5.601562 L 3.199219 5.601562 L 3.199219 7.199219 L 2.398438 7.199219 L 2.398438 5.601562 L 0 5.601562 L 0 10 L 0.800781 10 L 0.800781 24 L 23.199219 24 L 23.199219 10 L 24 10 Z M 20 2.988281 L 20 1.015625 L 22.238281 2.015625 Z M 4.800781 2.992188 L 4.800781 1.015625 L 7.046875 2.015625 Z M 0.800781 6.398438 L 1.601562 6.398438 L 1.601562 8 L 4 8 L 4 6.398438 L 4.800781 6.398438 L 4.800781 8 L 7.199219 8 L 7.199219 6.398438 L 8 6.398438 L 8 9.199219 L 0.800781 9.199219 Z M 3.199219 23.199219 L 3.199219 19.199219 C 3.199219 18.539062 3.738281 18 4.398438 18 C 5.0625 18 5.601562 18.539062 5.601562 19.199219 L 5.601562 23.199219 Z M 7.199219 23.199219 L 6.398438 23.199219 L 6.398438 19.199219 C 6.398438 18.097656 5.503906 17.199219 4.398438 17.199219 C 3.296875 17.199219 2.398438 18.097656 2.398438 19.199219 L 2.398438 23.199219 L 1.601562 23.199219 L 1.601562 10 L 7.199219 10 Z M 10 23.199219 L 10 17.199219 C 10 16.097656 10.898438 15.199219 12 15.199219 C 13.101562 15.199219 14 16.097656 14 17.199219 L 14 23.199219 Z M 16 23.199219 L 14.800781 23.199219 L 14.800781 17.199219 C 14.800781 15.65625 13.542969 14.398438 12 14.398438 C 10.457031 14.398438 9.199219 15.65625 9.199219 17.199219 L 9.199219 23.199219 L 8 23.199219 L 8 13.199219 L 10 13.199219 L 10 9.601562 L 10.800781 9.601562 L 10.800781 11.199219 L 13.199219 11.199219 L 13.199219 9.601562 L 14 9.601562 L 14 13.199219 L 16 13.199219 Z M 18.398438 23.199219 L 18.398438 19.199219 C 18.398438 18.539062 18.9375 18 19.601562 18 C 20.261719 18 20.800781 18.539062 20.800781 19.199219 L 20.800781 23.199219 Z M 22.398438 23.199219 L 21.601562 23.199219 L 21.601562 19.199219 C 21.601562 18.097656 20.703125 17.199219 19.601562 17.199219 C 18.496094 17.199219 17.601562 18.097656 17.601562 19.199219 L 17.601562 23.199219 L 16.800781 23.199219 L 16.800781 10 L 22.398438 10 Z M 23.199219 9.199219 L 16 9.199219 L 16 6.398438 L 16.800781 6.398438 L 16.800781 8 L 19.199219 8 L 19.199219 6.398438 L 20 6.398438 L 20 8 L 22.398438 8 L 22.398438 6.398438 L 23.199219 6.398438 Z M 23.199219 9.199219"/>
    <path d="M2.398438 15.199219L6.398438 15.199219 6.398438 11.601562 2.398438 11.601562zM3.199219 12.398438L5.601562 12.398438 5.601562 14.398438 3.199219 14.398438zM21.601562 11.601562L17.601562 11.601562 17.601562 15.199219 21.601562 15.199219zM20.800781 14.398438L18.398438 14.398438 18.398438 12.398438 20.800781 12.398438zM20.800781 14.398438"/>
</svg>

<svg xmlns="http://www.w3.org/2000/svg" width="32" height="32" viewBox="0 0 24 24">
    <path d="M24 5.602h-2.398v1.597H20.8V5.602H20V3.863l3.344-1.457.258-.125-.012-.539L19.762.035h-.004c-.024-.012-.051-.012-.074-.02C19.656.013 19.629 0 19.602 0c-.02 0-.032.008-.047.008-.035.008-.07.008-.106.023-.023.008-.043.028-.062.04-.024.015-.047.023-.063.042-.027.024-.043.055-.062.086-.008.012-.02.024-.028.04-.011.027-.011.054-.02.081-.003.024-.015.051-.015.075v5.207h-.8v1.597h-.797V5.602h-2.403V10H16v2.398h-1.2V8.801h-2.402v1.597h-.796V8.801H9.199v3.597H8V10h.8V5.602H6.399v1.597h-.796V5.602H4.8V3.863l3.355-1.457.258-.125-.016-.543L4.563.035h-.004c-.024-.012-.047-.012-.075-.02C4.457.013 4.43 0 4.402 0h-.004c-.015 0-.027.008-.043.008A.342.342 0 0 0 4.25.03c-.023.008-.043.028-.066.04-.02.015-.043.023-.063.042-.023.024-.039.051-.059.082-.007.016-.019.028-.027.043l-.004.004c-.008.024-.008.051-.015.074C4.012.344 4 .371 4 .395V5.602h-.8v1.597h-.802V5.602H0V10h.8v14h22.4V10h.8zm-4-2.614V1.016l2.238 1zm-15.2.004V1.016l2.247 1zm-4 3.406h.802V8H4V6.398h.8V8h2.4V6.398H8V9.2H.8zM3.2 23.2v-4a1.202 1.202 0 0 1 2.402 0v4zm4 0h-.802v-4c0-1.101-.894-2-2-2-1.101 0-2 .899-2 2v4h-.796V10h5.597zm2.8 0v-6c0-1.101.898-2 2-2 1.102 0 2 .899 2 2v6zm6 0h-1.2v-6c0-1.543-1.257-2.8-2.8-2.8a2.806 2.806 0 0 0-2.8 2.8v6H8v-10h2V9.602h.8v1.597h2.4V9.602h.8v3.597h2zm2.398 0v-4a1.202 1.202 0 0 1 2.402 0v4zm4 0h-.796v-4c0-1.101-.899-2-2-2-1.106 0-2 .899-2 2v4H16.8V10h5.597zm.801-14H16V6.4h.8V8h2.4V6.398h.8V8h2.398V6.398h.801zm0 0"/>
    <path d="M2.398 15.2h4v-3.598h-4zm.801-2.802h2.403v2H3.199zm0 0M21.602 11.602h-4v3.597h4zm-.801 2.796h-2.403v-2h2.403zm0 0"/>
</svg>
